packages/radix-icons/twoTone/15/divider-horizontal.svg

<svg width="15" height="15" fill="none" xmlns="http://www.w3.org/2000/svg">
  <path
    fill-rule="evenodd"
    clip-rule="evenodd"
    d="M1.5 7.5C1.5 6.94772 1.94772 6.5 2.5 6.5H12.5C13.0523 6.5 13.5 6.94772 13.5 7.5C13.5 8.05228 13.0523 8.5 12.5 8.5H2.5C1.94772 8.5 1.5 8.05228 1.5 7.5Z"
    fill="currentColor"
    opacity=".2"
  />
  <path
    fill-rule="evenodd"
    clip-rule="evenodd"
    d="M2 7.5C2 7.22386 2.22386 7 2.5 7H12.5C12.7761 7 13 7.22386 13 7.5C13 7.77614 12.7761 8 12.5 8H2.5C2.22386 8 2 7.77614 2 7.5Z"
    fill="currentColor"
  />
</svg>

<svg width="15" height="15" fill="none" xmlns="http://www.w3.org/2000/svg">
  <path
    fill-rule="evenodd"
    clip-rule="evenodd"
    d="M1.5 7.5a1 1 0 011-1h10a1 1 0 110 2h-10a1 1 0 01-1-1z"
    fill="currentColor"
    opacity=".2"
  />
  <path
    fill-rule="evenodd"
    clip-rule="evenodd"
    d="M2 7.5a.5.5 0 01.5-.5h10a.5.5 0 010 1h-10a.5.5 0 01-.5-.5z"
    fill="currentColor"
  />
</svg>
